img/company/honeywell.svg

<svg width="150" height="29" viewBox="0 0 150 29" fill="none" xmlns="http://www.w3.org/2000/svg">
<path d="M18.6474 0.783936C18.6674 0.944796 18.7175 1.10566 18.7175 1.27657C18.7175 8.26395 18.7175 15.2413 18.7175 22.2287C18.7175 22.3594 18.7175 22.4901 18.7175 22.671C16.4754 22.671 14.2733 22.671 12.0112 22.671C12.0112 19.3633 12.0112 16.0757 12.0112 12.758C10.2396 12.758 8.52796 12.758 6.75631 12.758C6.75631 16.0556 6.75631 19.3533 6.75631 22.6811C4.49419 22.6811 2.29214 22.6811 0.0400374 22.6811C0.030028 22.5403 0 22.3895 0 22.2488C0 15.2212 0 8.20363 0 1.18609C0 1.05539 0.0200187 0.914635 0.030028 0.783936C2.26211 0.783936 4.5042 0.783936 6.73629 0.783936C6.73629 3.82018 6.73629 6.85642 6.73629 9.89267C8.53797 9.89267 10.2496 9.89267 12.0112 9.89267C12.0112 9.12858 12.0112 8.39465 12.0112 7.66073C12.0212 5.36846 12.0312 3.0762 12.0412 0.783936C14.2433 0.783936 16.4454 0.783936 18.6474 0.783936Z" fill="#24242E"/>
<path d="M142.063 0.783691C142.073 0.984767 142.093 1.18584 142.093 1.38692C142.093 8.28382 142.093 15.1807 142.093 22.0776C142.093 22.2586 142.093 22.4395 142.093 22.6607C140.081 22.6607 138.109 22.6607 136.067 22.6607C136.067 22.4697 136.067 22.2686 136.067 22.0776C136.067 15.0802 136.067 8.08274 136.067 1.08531C136.067 0.984767 136.057 0.884229 136.057 0.783691C138.059 0.783691 140.061 0.783691 142.063 0.783691Z" fill="#24242E"/>
<path d="M149.97 0.783691C149.98 0.984767 150 1.18584 150 1.38692C150 8.28382 150 15.1807 150 22.0776C150 22.2586 150 22.4395 150 22.6607C147.988 22.6607 146.016 22.6607 143.974 22.6607C143.974 22.4697 143.974 22.2686 143.974 22.0776C143.974 15.0802 143.974 8.08274 143.974 1.08531C143.974 0.984767 143.964 0.884229 143.964 0.783691C145.966 0.783691 147.968 0.783691 149.97 0.783691Z" fill="#24242E"/>
<path d="M113.856 6.74565C114.797 6.74565 115.708 6.74565 116.689 6.74565C115.228 12.0842 113.776 17.3826 112.325 22.701C110.653 22.701 109.022 22.7111 107.39 22.6809C107.27 22.6809 107.09 22.4597 107.04 22.3089C106.199 19.6346 105.368 16.9502 104.538 14.2659C104.468 14.0447 104.398 13.8235 104.277 13.4716C103.937 14.7183 103.627 15.8242 103.327 16.9301C102.836 18.6996 102.346 20.4791 101.875 22.2486C101.785 22.5804 101.665 22.7111 101.305 22.701C99.8233 22.6809 98.3319 22.6809 96.8505 22.701C96.5302 22.701 96.4001 22.6005 96.3 22.2888C94.8486 17.5032 93.3873 12.7277 91.9259 7.9521C91.8759 7.8013 91.8258 7.64044 91.7257 7.35893C91.6056 7.62033 91.5355 7.77114 91.4755 7.932C89.2834 13.3208 87.1014 18.7097 84.9094 24.0985C84.3388 25.496 83.6782 26.8432 82.417 27.7882C80.6654 29.0952 78.8037 29.1354 76.9019 28.2507C75.6007 27.6475 75.0001 26.2198 75.3605 24.8324C75.8009 23.073 78.1631 22.2586 79.6144 23.3545C80.4752 24.008 80.7255 25.5462 80.1349 26.441C80.0748 26.5315 80.0048 26.622 79.9147 26.7627C80.5153 26.8532 80.9557 26.6521 81.316 26.2902C82.1568 25.4758 82.6372 24.4504 82.8975 23.3243C82.9375 23.1534 82.8675 22.9322 82.7974 22.7513C80.7955 17.5736 78.7836 12.4059 76.7718 7.23828C76.7217 7.09753 76.6817 6.95678 76.6216 6.77581C76.8018 6.76576 76.9419 6.74565 77.0821 6.74565C79.0539 6.74565 81.0157 6.7557 82.9876 6.7356C83.3279 6.7356 83.478 6.83613 83.5981 7.15785C84.4289 9.35963 85.2797 11.5614 86.1205 13.7632C86.1805 13.914 86.2506 14.0648 86.3607 14.3262C87.4217 11.7424 88.4427 9.2591 89.4736 6.7557C89.9941 6.7557 90.5046 6.7557 91.0151 6.7557C93.1971 6.7557 95.3891 6.76576 97.5712 6.74565C97.9615 6.74565 98.1117 6.87635 98.2218 7.22823C99.0125 9.82211 99.8133 12.4059 100.614 14.9898C100.664 15.1506 100.724 15.3014 100.894 15.4824C101.685 12.5869 102.476 9.68135 103.277 6.7557C105.038 6.7557 106.79 6.74565 108.531 6.77581C108.652 6.77581 108.822 7.00705 108.862 7.16791C109.562 9.44006 110.243 11.7122 110.924 13.9844C111.074 14.4871 111.234 14.9898 111.504 15.5025C112.285 12.5668 113.066 9.66125 113.856 6.74565Z" fill="#24242E"/>
<path d="M40.5278 22.6608C40.5278 17.3424 40.5278 12.0541 40.5278 6.74569C42.5998 6.74569 44.6517 6.74569 46.7637 6.74569C46.7637 7.39919 46.7637 8.05269 46.7637 8.70618C46.8137 8.73635 46.8637 8.76651 46.9238 8.78661C46.9939 8.67602 47.0539 8.55538 47.124 8.45484C48.8756 6.2229 52.459 5.74032 54.7511 6.81607C56.3626 7.57011 57.2735 8.85699 57.2935 10.6466C57.3335 14.5474 57.3035 18.4483 57.3035 22.3592C57.3035 22.4397 57.2835 22.5201 57.2735 22.6508C55.2516 22.6508 53.2297 22.6508 51.1478 22.6508C51.1478 22.4196 51.1478 22.2084 51.1478 21.9973C51.1478 18.6996 51.1478 15.402 51.1478 12.0943C51.1478 11.7625 51.1277 11.4207 51.0977 11.0889C50.9676 9.76183 49.8866 9.0279 48.6754 9.58086C48.0148 9.88248 47.4743 10.4555 46.9238 10.9482C46.7837 11.0688 46.7737 11.3805 46.7737 11.6017C46.7637 15.0702 46.7637 18.5388 46.7637 22.0073C46.7637 22.2084 46.7637 22.4095 46.7637 22.6508C44.6917 22.6608 42.6298 22.6608 40.5278 22.6608Z" fill="#24242E"/>
<path d="M29.7378 6.1322C31.2392 6.16236 32.6606 6.41371 34.0218 7.03704C36.9245 8.3742 38.3659 10.7268 38.6361 13.8535C38.7963 15.6833 38.526 17.4729 37.6352 19.1116C36.2739 21.605 34.0919 22.8919 31.3093 23.1935C29.5176 23.3946 27.7259 23.3644 26.0344 22.731C23.0416 21.605 21.2599 19.4133 20.7594 16.2363C20.5092 14.6679 20.5392 13.0894 21.1098 11.5814C22.1908 8.71603 24.3027 7.03704 27.2655 6.44387C28.0763 6.27296 28.9171 6.23274 29.7378 6.1322ZM27.5458 14.8287C27.5158 14.8287 27.4857 14.8287 27.4557 14.8287C27.4557 15.8039 27.4257 16.7691 27.4657 17.7443C27.4957 18.7397 27.7059 19.7048 28.3365 20.5292C29.1573 21.605 30.2883 21.5949 31.0591 20.479C31.5896 19.7149 31.8598 18.8402 31.8698 17.9354C31.9099 15.7939 31.9099 13.6524 31.8498 11.511C31.8198 10.4955 31.5395 9.52033 30.8088 8.75624C30.0781 7.99215 29.1373 8.02231 28.4766 8.84672C27.9562 9.50022 27.5858 10.2442 27.5558 11.0887C27.5157 12.3253 27.5458 13.572 27.5458 14.8287Z" fill="#24242E"/>
<path d="M134.275 15.6533C130.472 15.6533 126.778 15.6533 123.075 15.6533C123.075 16.8698 122.935 18.0562 123.115 19.1923C123.325 20.5093 124.436 21.012 125.647 21.1729C126.678 21.3036 127.709 21.193 128.7 20.8411C129.941 20.3987 130.752 19.5643 130.982 18.1869C131.863 18.1869 132.734 18.1869 133.665 18.1869C133.585 19.2727 133.234 20.1976 132.433 20.9115C130.852 22.2989 129.01 23.063 126.918 23.2439C124.796 23.4249 122.714 23.3445 120.773 22.3492C117.72 20.7808 115.948 17.3022 116.388 13.8437C116.639 11.8429 117.229 10.0232 118.741 8.61568C120.632 6.86632 122.895 6.10223 125.427 6.22288C126.608 6.2832 127.829 6.44406 128.96 6.806C131.953 7.78122 133.514 10.0433 134.035 13.0695C134.175 13.8939 134.195 14.7485 134.275 15.6533ZM127.779 13.4214C127.659 12.2451 127.599 11.1191 127.419 10.0031C127.309 9.3295 126.908 8.75643 126.328 8.38444C125.387 7.77116 124.236 8.17331 123.605 9.28928C122.875 10.5862 123.075 12.0038 123.015 13.4214C124.576 13.4214 126.088 13.4214 127.779 13.4214Z" fill="#24242E"/>
<path d="M65.9414 15.6533C65.9414 16.8396 65.8713 17.9254 65.9614 19.0012C66.0615 20.1574 67.0624 20.9818 68.5038 21.1628C69.6949 21.3136 70.866 21.1829 71.977 20.6802C72.9279 20.2479 73.5685 19.5441 73.8287 18.5086C73.8588 18.3678 74.0289 18.1667 74.139 18.1667C74.9398 18.1366 75.7305 18.1466 76.5813 18.1466C76.4812 19.2626 76.1309 20.2077 75.3101 20.9215C73.6886 22.3491 71.7768 23.0931 69.6348 23.254C67.5529 23.4048 65.481 23.3444 63.5992 22.2888C60.5264 20.5595 59.135 17.8551 59.2652 14.3463C59.4854 8.28385 64.3299 6.06197 68.3236 6.18261C69.795 6.22283 71.2563 6.43396 72.6076 7.05729C75.0399 8.18332 76.3811 10.174 76.8916 12.7477C77.0718 13.6727 77.1118 14.6278 77.2119 15.6432C73.3883 15.6533 69.6949 15.6533 65.9414 15.6533ZM70.6558 13.4314C70.5857 12.416 70.5757 11.4508 70.4256 10.5057C70.3355 9.95278 70.0853 9.37972 69.765 8.91724C68.9942 7.82138 67.5629 7.84149 66.7622 8.90719C65.7312 10.2745 65.9814 11.863 65.9214 13.4314C67.5028 13.4314 69.0042 13.4314 70.6558 13.4314Z" fill="#24242E"/>
</svg>

<svg width="150" height="29" fill="none" xmlns="http://www.w3.org/2000/svg"><path d="M18.647.784c.02.16.07.322.07.493V22.67h-6.706v-9.913H6.756v9.923H.04c-.01-.14-.04-.291-.04-.432V1.186c0-.13.02-.271.03-.402h6.706v9.109h5.275V7.66l.03-6.877h6.606zM142.063.784c.01.2.03.402.03.603V22.66h-6.026V1.085c0-.1-.01-.2-.01-.301h6.006zM149.97.784c.01.2.03.402.03.603V22.66h-6.026V1.085c0-.1-.01-.2-.01-.301h6.006zM113.856 6.746h2.833c-1.461 5.338-2.913 10.637-4.364 15.955-1.672 0-3.303.01-4.935-.02-.12 0-.3-.221-.35-.372-.841-2.674-1.672-5.359-2.502-8.043-.07-.221-.14-.443-.261-.794-.34 1.246-.65 2.352-.95 3.458-.491 1.77-.981 3.55-1.452 5.319-.09.331-.21.462-.57.452a164.54 164.54 0 0 0-4.455 0c-.32 0-.45-.1-.55-.412a5999.498 5999.498 0 0 0-4.374-14.337c-.05-.15-.1-.312-.2-.593-.12.261-.19.412-.25.573-2.193 5.389-4.375 10.778-6.567 16.166-.57 1.398-1.23 2.745-2.492 3.69-1.752 1.307-3.613 1.347-5.515.463C75.6 27.647 75 26.22 75.36 24.832c.44-1.759 2.802-2.573 4.253-1.477.861.653 1.111 2.191.52 3.086-.06.09-.13.181-.22.322.601.09 1.042-.11 1.402-.473.84-.814 1.321-1.84 1.581-2.966.04-.17-.03-.392-.1-.573-2.001-5.177-4.013-10.345-6.025-15.513-.05-.14-.09-.281-.15-.462.18-.01.32-.03.46-.03 1.972 0 3.934.01 5.906-.01.34 0 .49.1.61.422.83 2.202 1.682 4.403 2.523 6.605.06.151.13.302.24.563 1.06-2.584 2.082-5.067 3.113-7.57h1.541c2.182 0 4.374.01 6.556-.01.39 0 .54.13.65.482.791 2.594 1.592 5.178 2.393 7.762.05.16.11.311.28.492.791-2.895 1.582-5.8 2.383-8.726 1.761 0 3.513-.01 5.254.02.121 0 .291.231.331.392.7 2.272 1.381 4.544 2.062 6.816.15.503.31 1.006.58 1.518.781-2.935 1.562-5.84 2.352-8.756zM40.528 22.66V6.747h6.236v1.96c.05.03.1.06.16.08.07-.11.13-.23.2-.331 1.752-2.232 5.335-2.715 7.627-1.639 1.612.754 2.523 2.041 2.543 3.83.04 3.901.01 7.802.01 11.713 0 .08-.02.161-.03.292h-6.126V12.094c0-.332-.02-.673-.05-1.005-.13-1.327-1.211-2.061-2.423-1.508-.66.301-1.2.875-1.751 1.367-.14.12-.15.432-.15.654-.01 3.468-.01 6.937-.01 10.405v.644c-2.072.01-4.134.01-6.236.01zM29.738 6.132c1.501.03 2.923.282 4.284.905 2.903 1.337 4.344 3.69 4.614 6.817.16 1.83-.11 3.619-1 5.258-1.362 2.493-3.544 3.78-6.327 4.082-1.791.2-3.583.17-5.275-.463-2.992-1.126-4.774-3.318-5.275-6.495-.25-1.568-.22-3.147.35-4.655 1.082-2.865 3.194-4.544 6.156-5.137.811-.171 1.652-.211 2.473-.312zm-2.192 8.697h-.09c0 .975-.03 1.94.01 2.915.03.996.24 1.96.87 2.785.821 1.076 1.952 1.066 2.723-.05.53-.764.8-1.639.81-2.544.04-2.141.04-4.283-.02-6.424-.03-1.015-.31-1.99-1.04-2.755-.73-.764-1.672-.734-2.332.09-.52.654-.891 1.398-.921 2.243-.04 1.236-.01 2.483-.01 3.74zM134.275 15.653h-11.2c0 1.217-.14 2.403.04 3.54.21 1.316 1.321 1.819 2.532 1.98 1.031.13 2.062.02 3.053-.332 1.241-.442 2.052-1.277 2.282-2.654h2.683c-.08 1.086-.431 2.01-1.232 2.724-1.581 1.388-3.423 2.152-5.515 2.333-2.122.18-4.204.1-6.145-.895-3.053-1.568-4.825-5.047-4.385-8.505.251-2.001.841-3.82 2.353-5.228 1.891-1.75 4.154-2.514 6.686-2.393 1.181.06 2.402.221 3.533.583 2.993.975 4.554 3.237 5.075 6.263.14.825.16 1.68.24 2.584zm-6.496-2.232c-.12-1.176-.18-2.302-.36-3.418-.11-.674-.511-1.247-1.091-1.619-.941-.613-2.092-.21-2.723.905-.73 1.297-.53 2.715-.59 4.132h4.764z" fill="#24242E"/><path d="M65.941 15.653c0 1.187-.07 2.272.02 3.348.1 1.156 1.101 1.98 2.543 2.162 1.19.15 2.362.02 3.473-.483.95-.432 1.591-1.136 1.852-2.171.03-.141.2-.342.31-.342.8-.03 1.592-.02 2.442-.02-.1 1.116-.45 2.06-1.27 2.775-1.622 1.427-3.534 2.171-5.676 2.332-2.082.15-4.154.09-6.036-.965-3.073-1.73-4.464-4.434-4.334-7.943.22-6.062 5.065-8.284 9.059-8.163 1.471.04 2.932.251 4.284.874 2.432 1.126 3.773 3.117 4.284 5.69.18.926.22 1.88.32 2.896-3.824.01-7.517.01-11.27.01zm4.715-2.222c-.07-1.015-.08-1.98-.23-2.925a4.036 4.036 0 0 0-.661-1.589c-.77-1.096-2.202-1.076-3.003-.01-1.03 1.367-.78 2.956-.84 4.524h4.734z" fill="#24242E"/></svg>
